packages/components/src/components/icon/currency/ic-currency-eur-check.svg

<svg width="96" height="97" viewBox="0 0 96 97" fill="none" xmlns="http://www.w3.org/2000/svg">
<path d="M0 48.772C0 22.2804 21.4757 0.804688 47.9673 0.804688V0.804688C74.4589 0.804688 95.9346 22.2804 95.9346 48.772V48.772C95.9346 75.2636 74.4589 96.7393 47.9673 96.7393V96.7393C21.4757 96.7393 0 75.2636 0 48.772V48.772Z" fill="#283991"/>
<path d="M49.0533 12.7256L47.8833 9.125L46.7131 12.7256H42.9261L45.9906 14.9508L44.8204 18.5514L47.8833 16.3248L50.9468 18.5514L49.7768 14.9508L52.8403 12.7256H49.0533Z" fill="#F8D12E"/>
<path d="M49.0533 80.6993L47.8833 77.097L46.7131 80.6993H42.9261L45.9906 82.9245L44.8204 86.5249L47.8833 84.2999L50.9468 86.5249L49.7768 82.9245L52.8403 80.6993H49.0533Z" fill="#F8D12E"/>
<path d="M66.538 15.1493L67.7074 18.7507H71.4944L68.4307 20.9774L69.6009 24.578L66.538 22.3513L63.4745 24.578L64.6445 20.9774L61.5817 18.7507H65.3686L66.538 15.1493Z" fill="#F8D12E"/>
<path d="M80.4355 31.3073L79.2661 27.7067L78.0951 31.3073H74.309L77.3727 33.5333L76.2024 37.1339L79.2661 34.9087L82.329 37.1339L81.1588 33.5333L84.2225 31.3073H80.4355Z" fill="#F8D12E"/>
<path d="M79.569 59.4335L80.7384 63.0355H84.5251L81.4616 65.2607L82.6325 68.8605L79.569 66.6361L76.5053 68.8605L77.6755 65.2607L74.6118 63.0355H78.3987L79.569 59.4335Z" fill="#F8D12E"/>
<path d="M18.1309 31.3073L16.9615 27.7067L15.7921 31.3073H12.0051L15.068 33.5333L13.898 37.1339L16.9615 34.9087L20.0236 37.1339L18.8541 33.5333L21.917 31.3073H18.1309Z" fill="#F8D12E"/>
<path d="M82.2157 42.8376L83.3852 46.4382H87.1721L84.1086 48.6634L85.2786 52.2648L82.2157 50.0404L79.1523 52.2648L80.3231 48.6634L77.2588 46.4382H81.0449L82.2157 42.8376Z" fill="#F8D12E"/>
<path d="M15.2377 46.4382L14.0683 42.8376L12.8981 46.4382H9.11133L12.1748 48.6634L11.0046 52.2648L14.0683 50.0404L17.1312 52.2648L15.9603 48.6634L19.0238 46.4382H15.2377Z" fill="#F8D12E"/>
<path d="M16.5508 59.4335L17.7203 63.0355H21.5064L18.4437 65.2607L19.6129 68.8605L16.5508 66.6361L13.4873 68.8605L14.6574 65.2607L11.5939 63.0355H15.3808L16.5508 59.4335Z" fill="#F8D12E"/>
<path d="M68.2566 76.1269L67.0872 72.5263L65.9172 76.1269H62.1302L65.1939 78.3536L64.0229 81.9542L67.0872 79.729L70.1501 81.9542L68.9793 78.3536L72.0436 76.1269H68.2566Z" fill="#F8D12E"/>
<path d="M29.8327 15.1493L31.0019 18.7507H34.7888L31.7254 20.9774L32.8962 24.578L29.8327 22.3513L26.7698 24.578L27.9398 20.9774L24.8763 18.7507H28.6625L29.8327 15.1493Z" fill="#F8D12E"/>
<path d="M29.621 75.8983L28.451 72.296L27.2808 75.8983H23.4946L26.5581 78.1227L25.3881 81.7233L28.451 79.4995L31.5145 81.7233L30.3444 78.1227L33.4079 75.8983H29.621Z" fill="#F8D12E"/>
<path d="M64 80.8047C64 71.9681 71.1634 64.8047 80 64.8047C88.8366 64.8047 96 71.9681 96 80.8047C96 89.6412 88.8366 96.8047 80 96.8047C71.1634 96.8047 64 89.6412 64 80.8047Z" fill="#4BB4B3"/>
<path fill-rule="evenodd" clip-rule="evenodd" d="M86.2929 75.0976C86.6834 74.7071 87.3166 74.7071 87.7071 75.0976C88.0976 75.4881 88.0976 76.1213 87.7071 76.5118L77.7071 86.5118C77.3166 86.9023 76.6834 86.9023 76.2929 86.5118L72.2929 82.5118C71.9024 82.1213 71.9024 81.4881 72.2929 81.0976C72.6834 80.7071 73.3166 80.7071 73.7071 81.0976L77 84.3905L86.2929 75.0976Z" fill="white"/>
</svg>

<svg width="96" height="97" fill="none" xmlns="http://www.w3.org/2000/svg"><path d="M0 48.772C0 22.28 21.476.805 47.967.805c26.492 0 47.968 21.475 47.968 47.967 0 26.492-21.476 47.967-47.968 47.967C21.476 96.74 0 75.264 0 48.772Z" fill="#283991"/><path d="m49.053 12.726-1.17-3.601-1.17 3.6h-3.787l3.065 2.226-1.17 3.6 3.062-2.226 3.064 2.226-1.17-3.6 3.063-2.225h-3.787ZM49.053 80.7l-1.17-3.603-1.17 3.602h-3.787l3.065 2.225-1.17 3.6 3.062-2.224 3.064 2.225-1.17-3.6 3.063-2.226h-3.787ZM66.538 15.15l1.17 3.6h3.786l-3.063 2.227 1.17 3.601-3.063-2.227-3.063 2.227 1.17-3.6-3.063-2.227h3.787l1.169-3.602ZM80.436 31.307l-1.17-3.6-1.17 3.6h-3.787l3.064 2.226-1.17 3.6 3.063-2.224 3.063 2.225-1.17-3.6 3.063-2.227h-3.786ZM79.569 59.434l1.17 3.602h3.786l-3.063 2.225 1.17 3.6-3.063-2.225-3.064 2.225 1.17-3.6-3.063-2.225h3.787l1.17-3.602ZM18.13 31.307l-1.168-3.6-1.17 3.6h-3.787l3.063 2.226-1.17 3.6 3.064-2.224 3.062 2.225-1.17-3.6 3.063-2.227h-3.786ZM82.216 42.838l1.17 3.6h3.786l-3.063 2.225 1.17 3.602-3.063-2.225-3.064 2.225 1.171-3.602-3.064-2.225h3.786l1.17-3.6ZM15.238 46.438l-1.17-3.6-1.17 3.6H9.111l3.064 2.225-1.17 3.602 3.063-2.225 3.063 2.225-1.17-3.602 3.063-2.225h-3.786ZM16.55 59.434l1.17 3.602h3.786l-3.062 2.225 1.169 3.6-3.062-2.225-3.064 2.225 1.17-3.6-3.063-2.225h3.787l1.17-3.602ZM68.257 76.127l-1.17-3.6-1.17 3.6H62.13l3.064 2.227-1.171 3.6 3.064-2.225 3.063 2.225-1.17-3.6 3.064-2.227h-3.787ZM29.833 15.15l1.169 3.6h3.787l-3.064 2.227 1.171 3.601-3.063-2.227-3.063 2.227 1.17-3.6-3.064-2.227h3.787l1.17-3.602ZM29.621 75.898l-1.17-3.602-1.17 3.602h-3.786l3.063 2.225-1.17 3.6 3.063-2.224 3.064 2.224-1.17-3.6 3.063-2.225H29.62Z" fill="#F8D12E"/><path d="M64 80.805c0-8.837 7.163-16 16-16s16 7.163 16 16c0 8.836-7.163 16-16 16s-16-7.164-16-16Z" fill="#4BB4B3"/><path fill-rule="evenodd" clip-rule="evenodd" d="M86.293 75.098a1 1 0 0 1 1.414 1.414l-10 10a1 1 0 0 1-1.414 0l-4-4a1 1 0 0 1 1.414-1.414L77 84.39l9.293-9.293Z" fill="#fff"/></svg>
